X: 1
T: String Quartet in C major opus 1 no 6 mvt 4
C: Franz Joseph Haydn
%%abc-version 2.0
%%abcx-abcm2ps-target-version 5.9.1 (29 Sep 2008)
%%abc-creator hum2abc beta
%%abcx-conversion-date 2021/02/14 14:38:27
%%abc-copyright Copyright (c) 1994, 2000 Center for Computer Assisted Research in the Humanities
%%abc-edited-by Frances Bennion
%%abcx-initial-encoding-date 1997/04/15
%%gracespace 0 6 6
%%humdrum-veritas 2261779953
%%humdrum-veritas-data 3142369773
%%linebreak <none>
%%barnumbers 0
L: 1/4
M: 3/4
N: Derived from op01n6-04.krn
Q: "Menuetto II"
%%staves [1 2 3 4]
V: 1
V: 2
V: 3 clef=alto
V: 4 clef=bass
K: C
[V:1]c e ^f [I:setbarnb2] |
[V:2]C E ^F |
[V:3]C z2 |
[V:4]C,2 C, |
[V:1]^f/g/ d2 |
[V:2]^F/G/ D2 |
[V:3]B, B B |
[V:4]B,, B, G, |
[V:1]f/e/ a/f/ d/c/ |
[V:2]F/E/ A/F/ D/C/ |
[V:3]c F ^F |
[V:4]C F, ^F, |
[V:1]c2 B |
[V:2]C2 B, |
[V:3]G D G, |
[V:4]G, D, G,, |
[V:1]c/g/ g ^g |
[V:2]C/G/ G ^G |
[V:3]E z E |
[V:4]E, z E, |
[V:1](3a/b/c'/ c'3/ b//a// |
[V:2](3A/B/c/ c3/ B//A// |
[V:3]F A F |
[V:4]F, A, F, |
[V:1]g c B |
[V:2]G C B, |
[V:3]E F G |
[V:4]E, F, G, |
[V:1]c2 z |
[V:2]C2 z |
[V:3]C G, C, |
[V:4]C, G,, C,, |
[V:1]g g g |
[V:2]G G G |
[V:3]G E D |
[V:4]G, E, D, |
[V:1]g/_b <b a//g// |
[V:2]G/_B <B A//G// |
[V:3]^C z ^c |
[V:4]^C, z ^C |
[V:1]f e d |
[V:2]F E D |
[V:3]d G _B |
[V:4]D G, _B, |
[V:1]d2 ^c |
[V:2]D2 ^C |
[V:3]A E A, |
[V:4]A, E, A,, |
[V:1]A _B ^c |
[V:2]A, _B, ^C |
[V:3]A G E |
[V:4]A, G, E, |
[V:1]^c d/e/ f/g/ |
[V:2]^C D/E/ F/G/ |
[V:3]F >^C D/E/ |
[V:4]F, >^C, D,/E,/ |
[V:1]a d ^c |
[V:2]A D ^C |
[V:3]F G A |
[V:4]F, G, A, |
[V:1]d2 z |
[V:2]D2 z |
[V:3]D A, D, |
[V:4]D, A,, D,, |
[V:1]f f f |
[V:2]F F F |
[V:3]d B G |
[V:4]D B, G, |
[V:1]f/e/ (3c'/b/a/ g |
[V:2]F/E/ (3c/B/A/ G |
[V:3]c z2 |
[V:4]C z2 |
[V:1]g/f/ f f |
[V:2]G/F/ F F |
[V:3]d B G |
[V:4]D B, G, |
[V:1]f/e/ (3c'/b/a/ g |
[V:2]F/E/ (3c/B/A/ G |
[V:3]c z2 |
[V:4]C z2 |
[V:1]g f/>e/ d3//c// |
[V:2]G F/>E/ D3//C// |
[V:3]E F ^F |
[V:4]E, F, ^F, |
[V:1]G z2 |
[V:2]G, z2 |
[V:3]G G/F/ E/D/ |
[V:4]G, G,/F,/ E,/D,/ |
[V:1]c e ^f |
[V:2]C E ^F |
[V:3]C z C |
[V:4]C, z C, |
[V:1]^f/g/ d2 |
[V:2]^F/G/ D2 |
[V:3]B, B G |
[V:4]B,, B, G, |
[V:1]f/e/ a/f/ d/c/ |
[V:2]F/E/ A/F/ D/C/ |
[V:3]c F ^F |
[V:4]C F, ^F, |
[V:1]c2 B |
[V:2]C2 B, |
[V:3]G D G, |
[V:4]G, D, G,, |
[V:1]c/g/ g ^g |
[V:2]C G ^G |
[V:3]E z E |
[V:4]E, z E, |
[V:1](3a/b/c'/ c'3/ b//a// |
[V:2](3A/B/c/ c3/ B//A// |
[V:3]F A F |
[V:4]F, A, F, |
[V:1]g c B |
[V:2]G C B, |
[V:3]E F G |
[V:4]E, F, G, |
[V:1]c2 z |
[V:2]C2 z |
[V:3]C C, z |
[V:4]C, C,, z |
[V:1]G z2 |
[V:2]z _E E |
[V:3]z C C |
[V:4]z3 |
[V:1]G z2 |
[V:2]z D D |
[V:3]z B, B, |
[V:4]z3 |
[V:1]G/B/ c/_e/ d/c/ |
[V:2]_E2 ^F |
[V:3]C2 _A, |
[V:4]z3 |
[V:1]B2 z |
[V:2]G G, z |
[V:3]G, G G, |
[V:4]z3 |
[V:1]f3- |
[V:2]z c c |
[V:3]z _A A |
[V:4]z3 |
[V:1]f/_a/ g/f/ _e/d/ |
[V:2]B2 B |
[V:3]G2 z |
[V:4]z3 |
[V:1]_e c B |
[V:2]c _E D |
[V:3]C G G, |
[V:4]z3 |
[V:1]c z2 |
[V:2]C z2 |
[V:3]C G, C, |
[V:4]z3 |
[V:1]_E G/E/ D/C/ |
[V:2]_E G/E/ D/C/ |
[V:3]_E G/E/ D/C/ |
[V:4]_E, G,/E,/ D,/C,/ |
[V:1]_B, z2 |
[V:2]_B, G G |
[V:3]_B, _B B |
[V:4]_B,, _E,, z |
[V:1]z3 |
[V:2]G (3_A/G/F/ _E |
[V:3]_B (3c/B/_A/ G |
[V:4]z D, _E, |
[V:1]_E G/E/ D/C/ |
[V:2]_E G/E/ D/C/ |
[V:3]_E G/E/ D/C/ |
[V:4]_E, G,/E,/ D,/C,/ |
[V:1]_B, g g |
[V:2]_B, _B B |
[V:3]_B, z2 |
[V:4]_B,, _E,, z |
[V:1]g/f/ f/_e/ e |
[V:2]_B/_A/ A/G/ G |
[V:3]z D _E |
[V:4]z D, _E, |
[V:1](3c/_B/_A/ G F |
[V:2](3_A/G/F/ _E D |
[V:3]_A _B _B, |
[V:4]_A, _B, _B,, |
[V:1]_E2 z |
[V:2]_E2 z |
[V:3]_E _B, _E, |
[V:4]_E, _B,, _E,, |
[V:1]_B3 |
[V:2]z F F |
[V:3]z _D D |
[V:4]z3 |
[V:1]_B _d/B/ _A/G/ |
[V:2]E2 E |
[V:3]C2 E |
[V:4]z3 |
[V:1]G/_A/ c/A/ G/F/ |
[V:2]F z D |
[V:3]F z D |
[V:4]z3 |
[V:1]^F/G/ _B/G/ =F/E/ |
[V:2]_E z C |
[V:3]_E z C |
[V:4]z3 |
[V:1]E/F/ _A/F/ _E/D/ |
[V:2]D z B, |
[V:3]D z B, |
[V:4]z3 |
[V:1]_E C/>D/ E3//F// |
[V:2]C C/>D/ _E3//F// |
[V:3]C C/>D/ _E3//F// |
[V:4]z C,/>D,/ _E,3//F,// |
[V:1]G C/>D/ _E3//F// |
[V:2]G C/>D/ _E3//F// |
[V:3]G C/>D/ _E3//F// |
[V:4]G, C,/>D,/ _E,3//F,// |
[V:1]G G, z |
[V:2]G G, z |
[V:3]G G, z |
[V:4]G, G,, z |
[V:1]g z2 |
[V:2]z _E E |
[V:3]z C C |
[V:4]z3 |
[V:1]g z2 |
[V:2]z D D |
[V:3]z B, B, |
[V:4]z3 |
[V:1]g/^f/ g/_e/ d/c/ |
[V:2]_E2 ^F |
[V:3]C2 _A, |
[V:4]z3 |
[V:1]B2 z |
[V:2]G G, z |
[V:3]G, G G, |
[V:4]z3 |
[V:1]f3 |
[V:2]z c c |
[V:3]z _A A |
[V:4]z3 |
[V:1]f/_a/ g/f/ _e/d/ |
[V:2]B2 B |
[V:3]G2 G |
[V:4]z3 |
[V:1]_e/g/ f/e/ d/c/ |
[V:2]c z F/_E/ |
[V:3]C z F |
[V:4]z3 |
[V:1]B2 z |
[V:2]D2 z |
[V:3]G D G, |
[V:4]z3 |
[V:1]C _E/C/ _B,/_A,/ |
[V:2]C _E/C/ _B,/_A,/ |
[V:3]C _E/C/ _B,/_A,/ |
[V:4]C, _E,/C,/ _B,,/_A,,/ |
[V:1]G, z2 |
[V:2]G, _E E |
[V:3]G, G G |
[V:4]G,, C,, z |
[V:1]z3 |
[V:2]_E (3F/E/D/ C |
[V:3]G (3_A/G/F/ _E |
[V:4]z B,, C, |
[V:1]C _E/C/ _B,/_A,/ |
[V:2]C _E/C/ _B,/_A,/ |
[V:3]C _E/C/ _B,/_A,/ |
[V:4]C, _E,/C,/ _B,,/_A,,/ |
[V:1]G, _e e |
[V:2]G, G G |
[V:3]G, z2 |
[V:4]G,, C,, z |
[V:1]_e/d/ d/c/ c |
[V:2]G/F/ F/_E/ E |
[V:3]z B c |
[V:4]z B, C |
[V:1](3_A/G/F/ _E D |
[V:2](3F/_E/D/ C B, |
[V:3]F G G, |
[V:4]F, G, G,, |
[V:1]C2 z |]
[V:2]C2 z |]
[V:3]C G, C, |]
[V:4]C, G,, C,, |]

